X: 19999
T: Jim McAllister's
R: jig
M: 6/8
K: Gmajor
|:GgG eGd|GBG AGE|DGG AGA|Bee dBA|
GgG eGd|GBG AGE|DGG AGA|1 BGG G2F:|2 BGG G2B||
|:dgb agf|gfg edB|eAA ABA|GBA GFE|
DGG AGA|Bdd ege|dBG AGA|1 BGG G2B:|2 BGG G2F||

